!!!OTL: Das Kchuehorn. (Kuhhorn.) / (14. Jahrh. Salzburger Tanzlied.)
!!!ARE: Europa, Mitteleuropa, Deutschland
!!!SCT: A0297
!!!TXL: @@GMH
!!!YEM: Copyright 1995, estate of Helmut Schaffrath.
**kern	**text
!! Mixed meters:  4/4; 6/4
*M4/4yy	*
*clefC3	*
*k[]	*
*F:ion	*
=1	=1
!LO:TX:a:t=jon. F.	!
!LO:TX:a:t=I.	!
{4F	Un-
4A	-tarn
2c	ſlaf,
=2	=2
4f	tut
4c	den
4c	ſu-
4A	-mer
=3	=3
2c}	wol.
{4F	der
4A	an
=4	=4
2c	ſtraf,
4f	lib-
4c	-lich
=5	=5
4c	ru-
4A	-en
4F	ſol.
4r}	.
=6	=6
{4f	pey
4c	der
4A	di-
4F	-ren
=7	=7
4A	auf
4B-	dem
2c}	ſtro,
=8	=8
{4f	in
4c	der
4c	sti-
4A	-ren
=9	=9
4F	macht
4A	eʒ
2F}	fro.
==10	==10
*M6/4	*
!LO:TX:a:t=II.	!
{2F	Sie:_Jch
4F	muʒʒ
2A	hyn,
4A	mein
=11	=11
2c	traut
4c	ge-
2c}	-ſell,
{4c	ich
=12	=12
2f	hab
4f	ze
2c	lang
4c	ge-
=13	=13
2c	-ſlaf-
4c	-fen
2A	hy
4A	pei
=14	=14
2.c	dir.
2.r}	.
=15	=15
!LO:TX:a:t=II.	!
{2F	Er:_Traut
4F	ge-
2A	-ſpil,
4A	ge
=16	=16
2c	wy
4c	got
2c}	well,
{4c	ich
=17	=17
2f	laz
4f	dich
2c	ſchai-
4c	-den
=18	=18
2c	nicht
4c	ſo
2A	bald
4A	von
=19	=19
2.c	mir.
2.r}	.
=20	=20
!LO:TX:a:t=P:2r in the source:problem	!
!LO:N:vis=2	!
2.r	.
2r}	.
{4f	Sie:_Da
=21	=21
2f	ſint
4c	dy
2c	kchü
4A	noch
=22	=22
2c	vn-
4c	-ge-
2A	-molchen,
4F}	.
=23	=23
{2A	dar-
4A	-vmb
2B-	ist
4B-	mir
=24	=24
2.c	gach;
4r	.
4r}	.
{4f	ge-
=25	=25
2f	-ſpot-
4c	-tet
2c	wird
4A	mir
=26	=26
2c	von
4c	den
2A	vol-
4A}	-chen,
=27	=27
{2F	ſold
4F	ich
2A	trei-
4A	-ben
=28	=28
1.F/ll}	nach.
==	==
!!!GTL: Tanz- und Kranzlieder
!!!AGN: Romanze, Ballade, Lied
!! Spoerels Liederhandschr. 14. Jh. Cod. 2856 der Hofbibl. zu Wien
!!    fol 187
!!!ONB: ESAC (Essen Associative Code) Database: ALTDEU
!!!AMT: irregular
!!!AIN: vox
!!!EED: Helmut Schaffrath
!!!EEV: 1.0
!!!RDF**kern: l = terminal long
!!!AMD: Ionian
!!!URL-scan: https://rosdok.uni-rostock.de/mcrviewer/recordIdentifier/rosdok_ppn738218359/iview2/phys_0453.iview2?x=-495.6391625615763&y=21.60098523600027&scale=0.4629418472063854&rotation=0&layout=singlePageLayout&logicalDiv=log_0012
!!!ENC: Anna Maria Matuszewska
!!!EEV: 2024/12/03
*-	*-
